images/deer.svg

<?xml version="1.0" standalone="no"?><!DOCTYPE svg PUBLIC "-//W3C//DTD SVG 1.1//EN" "http://www.w3.org/Graphics/SVG/1.1/DTD/svg11.dtd"><svg t="1693624105043" class="icon" viewBox="0 0 1024 1024" version="1.1" xmlns="http://www.w3.org/2000/svg" p-id="4187" xmlns:xlink="http://www.w3.org/1999/xlink" width="200" height="200"><path d="M362.667733 384l-21.333333 42.666667-21.333333-42.666667h42.666666z" fill="#B0BAC6" p-id="4188"></path><path d="M533.3344 128v64h-85.333333V119.893333L384.001067 64V21.333333h149.333333v42.666667h64v64h-64zM149.3344 64V21.333333h149.333333v42.666667l-64 55.893333V192H149.3344V128H85.3344V64h64z" fill="#F6CD85" p-id="4189"></path><path d="M832.001067 938.666667h85.333333v64h-85.333333zM362.667733 917.333333h85.333334v85.333334h-85.333334zM213.3344 917.333333h85.333333v85.333334h-85.333333z" fill="#B0BAC6" p-id="4190"></path><path d="M362.667733 832h85.333334v85.333333h-85.333334z" fill="#E9C2B9" p-id="4191"></path><path d="M426.667733 192l-56.533333 94.293333A33.834667 33.834667 0 0 1 341.3344 298.666667a33.834667 33.834667 0 0 1-28.8-12.373334L256.001067 192z" fill="#F6CD85" p-id="4192"></path><path d="M621.867733 192A39.509333 39.509333 0 0 1 661.3344 231.466667v0.213333a38.848 38.848 0 0 1-8.32 24.106667C586.027733 255.146667 533.3344 245.973333 533.3344 234.666667V192zM149.3344 192v42.666667c0 11.093333-62.72 20.48-119.68 21.12A38.848 38.848 0 0 1 21.3344 231.68v-0.213333A39.509333 39.509333 0 0 1 60.801067 192z" fill="#F6C8A4" p-id="4193"></path><path d="M533.3344 234.666667c0 11.306667 52.693333 20.48 119.68 21.12a40.341333 40.341333 0 0 1-13.44 11.093333L533.3344 320zM149.3344 234.666667v85.333333l-106.24-53.12a40.341333 40.341333 0 0 1-13.44-11.093333C86.6144 255.146667 149.3344 245.76 149.3344 234.666667z" fill="#CDABA5" p-id="4194"></path><path d="M1002.667733 384c0 94.293333-38.186667 170.666667-85.333333 170.666667l-1.92 0.213333a126.592 126.592 0 0 0-40.106667-73.6C880.8544 426.666667 935.681067 384 1002.667733 384zM341.3344 426.666667l21.333333-42.666667h-42.666666z m192-106.666667v170.666667a42.794667 42.794667 0 0 1-42.666667 42.666666H192.001067a42.794667 42.794667 0 0 1-42.666667-42.666666V192h106.666667l56.533333 94.293333A33.834667 33.834667 0 0 0 341.3344 298.666667a33.834667 33.834667 0 0 0 28.8-12.373334L426.667733 192h106.666667v128z" fill="#F6C8A4" p-id="4195"></path><path d="M875.307733 481.28a126.592 126.592 0 0 1 40.106667 73.6A114.368 114.368 0 0 1 917.3344 576v362.666667h-85.333333v-106.666667H298.667733v85.333333h-85.333333V533.333333h277.333333a42.794667 42.794667 0 0 0 42.666667-42.666666v-42.666667h256a126.677333 126.677333 0 0 1 85.973333 33.28z" fill="#F6C8A4" p-id="4196"></path><path d="M490.667733 554.666667H192.001067a64 64 0 0 1-64-64v-170.666667h42.666666v170.666667a21.333333 21.333333 0 0 0 21.333334 21.333333h298.666666a21.333333 21.333333 0 0 0 21.333334-21.333333v-170.666667h42.666666v170.666667a64 64 0 0 1-64 64zM234.667733 170.666667h213.333334v42.666666H234.667733z" fill="#2A3244" p-id="4197"></path><path d="M149.3344 341.333333a21.333333 21.333333 0 0 1-9.536-2.24L33.5584 285.866667a61.866667 61.866667 0 0 1-20.885333-17.066667A59.733333 59.733333 0 0 1 0.001067 231.68 60.906667 60.906667 0 0 1 60.801067 170.666667H149.3344a21.333333 21.333333 0 0 1 21.333333 21.333333v128a21.333333 21.333333 0 0 1-21.333333 21.333333z m-88.533333-128a18.154667 18.154667 0 0 0-18.133334 18.133334 17.685333 17.685333 0 0 0 3.797334 11.2 19.349333 19.349333 0 0 0 6.4 5.290666L128.001067 285.482667V213.333333zM533.3344 341.333333a21.333333 21.333333 0 0 1-21.333333-21.333333V192a21.333333 21.333333 0 0 1 21.333333-21.333333h88.533333A60.864 60.864 0 0 1 682.667733 231.466667a60.053333 60.053333 0 0 1-12.8 37.44 61.056 61.056 0 0 1-20.416 16.896l-106.538666 53.333333A21.333333 21.333333 0 0 1 533.3344 341.333333z m21.333333-128v72.149334l75.370667-37.696a18.346667 18.346667 0 0 0 5.994667-4.906667 17.728 17.728 0 0 0 3.968-11.2 18.197333 18.197333 0 0 0-18.133334-18.346667z" fill="#2A3244" p-id="4198"></path><path d="M234.667733 213.333333H149.3344a21.333333 21.333333 0 0 1-21.333333-21.333333V149.333333H85.3344a21.333333 21.333333 0 0 1-21.333333-21.333333V64a21.333333 21.333333 0 0 1 21.333333-21.333333h42.666667V21.333333a21.333333 21.333333 0 0 1 21.333333-21.333333h149.333333a21.333333 21.333333 0 0 1 21.333334 21.333333v42.666667a21.333333 21.333333 0 0 1-7.296 16.064L256.001067 129.578667V192a21.333333 21.333333 0 0 1-21.333334 21.333333zM170.667733 170.666667h42.666667V119.893333a21.333333 21.333333 0 0 1 7.296-16.064L277.3344 54.314667V42.666667H170.667733v21.333333a21.333333 21.333333 0 0 1-21.333333 21.333333H106.667733v21.333334h42.666667a21.333333 21.333333 0 0 1 21.333333 21.333333zM533.3344 213.333333h-85.333333a21.333333 21.333333 0 0 1-21.333334-21.333333V129.578667l-56.704-49.514667A21.333333 21.333333 0 0 1 362.667733 64V21.333333a21.333333 21.333333 0 0 1 21.333334-21.333333h149.333333a21.333333 21.333333 0 0 1 21.333333 21.333333v21.333334h42.666667a21.333333 21.333333 0 0 1 21.333333 21.333333v64a21.333333 21.333333 0 0 1-21.333333 21.333333h-42.666667v42.666667a21.333333 21.333333 0 0 1-21.333333 21.333333z m-64-42.666666h42.666667V128a21.333333 21.333333 0 0 1 21.333333-21.333333h42.666667V85.333333h-42.666667a21.333333 21.333333 0 0 1-21.333333-21.333333V42.666667h-106.666667v11.648l56.704 49.514666A21.333333 21.333333 0 0 1 469.3344 119.893333zM448.001067 1024h-85.333334a21.333333 21.333333 0 0 1-21.333333-21.333333v-170.666667h42.666667v149.333333h42.666666v-149.333333h42.666667v170.666667a21.333333 21.333333 0 0 1-21.333333 21.333333z" fill="#2A3244" p-id="4199"></path><path d="M917.3344 1024h-85.333333a21.333333 21.333333 0 0 1-21.333334-21.333333v-149.333334H320.001067v149.333334a21.333333 21.333333 0 0 1-21.333334 21.333333h-85.333333a21.333333 21.333333 0 0 1-21.333333-21.333333V533.333333h42.666666v448h42.666667v-149.333333a21.333333 21.333333 0 0 1 21.333333-21.333333h533.333334a21.333333 21.333333 0 0 1 21.333333 21.333333v149.333333h42.666667V576a92.224 92.224 0 0 0-1.557334-17.194667A106.666667 106.666667 0 0 0 789.3344 469.333333H533.3344v-42.666666h256a149.333333 149.333333 0 0 1 147.2 124.8A133.845333 133.845333 0 0 1 938.667733 576v426.666667a21.333333 21.333333 0 0 1-21.333333 21.333333z" fill="#2A3244" p-id="4200"></path><path d="M832.001067 853.333333c-136.384 0-192-55.616-192-192h42.666666c0 111.637333 37.696 149.333333 149.333334 149.333334zM917.3344 576v-42.666667c27.413333 0 57.749333-52.544 63.146667-126.122666a95.018667 95.018667 0 0 0-83.946667 76.224A49.514667 49.514667 0 0 0 896.001067 490.666667h-42.666667a87.274667 87.274667 0 0 1 0.853333-12.416C860.8224 412.736 924.715733 362.666667 1002.667733 362.666667a21.333333 21.333333 0 0 1 21.333334 21.333333c0 109.461333-45.845333 192-106.666667 192zM832.001067 917.333333h85.333333v42.666667h-85.333333zM213.3344 896h85.333333v42.666667h-85.333333zM362.667733 896h85.333334v42.666667h-85.333334zM661.3344 277.333333c-3.306667 0-6.613333 0-9.92-0.277333C512.001067 275.776 512.001067 246.976 512.001067 234.666667h42.666666a15.701333 15.701333 0 0 0-5.738666-12.586667 312.32 312.32 0 0 0 104.298666 12.373333c3.648 0.234667 5.888 0.170667 8.106667 0.213334zM21.3344 277.333333v-42.666666c2.261333 0 4.458667 0 6.72-0.149334a355.072 355.072 0 0 0 106.346667-13.269333A16.490667 16.490667 0 0 0 128.001067 234.666667h42.666666c0 10.112 0 40.874667-140.8 42.453333-1.92 0.213333-5.226667 0.213333-8.533333 0.213333zM341.3344 320a53.973333 53.973333 0 0 1-47.104-22.741333l-56.533333-94.293334 36.608-21.930666 56.533333 94.293333A27.733333 27.733333 0 0 0 341.3344 277.333333a19.434667 19.434667 0 0 0 11.072-2.752l55.957333-93.546666 36.608 21.930666-56.533333 94.293334A53.973333 53.973333 0 0 1 341.3344 320zM341.3344 448a21.333333 21.333333 0 0 1-19.093333-11.797333l-21.333334-42.666667A21.333333 21.333333 0 0 1 320.001067 362.666667h42.666666a21.333333 21.333333 0 0 1 19.093334 30.869333l-21.333334 42.666667A21.333333 21.333333 0 0 1 341.3344 448z" fill="#2A3244" p-id="4201"></path><path d="M320.001067 426.666667h42.666666v64h-42.666666zM448.001067 405.333333a64 64 0 0 1-64-64h42.666666a21.333333 21.333333 0 0 0 42.666667 0h42.666667a64 64 0 0 1-64 64zM234.667733 405.333333a64 64 0 0 1-64-64h42.666667a21.333333 21.333333 0 0 0 42.666667 0h42.666666a64 64 0 0 1-64 64z" fill="#2A3244" p-id="4202"></path></svg>

<svg class="icon" viewBox="0 0 1024 1024" xmlns="http://www.w3.org/2000/svg" width="200" height="200"><path d="m362.668 384-21.334 42.667L320.001 384h42.667z" fill="#B0BAC6"/><path d="M533.334 128v64h-85.333v-72.107l-64-55.893V21.333h149.333V64h64v64h-64zm-384-64V21.333h149.334V64l-64 55.893V192h-85.334v-64h-64V64h64z" fill="#F6CD85"/><path d="M832.001 938.667h85.333v64h-85.333zm-469.333-21.334H448v85.334h-85.333zm-149.334 0h85.334v85.334h-85.334z" fill="#B0BAC6"/><path d="M362.668 832H448v85.333h-85.333z" fill="#E9C2B9"/><path d="m426.668 192-56.534 94.293a33.835 33.835 0 0 1-28.8 12.374 33.835 33.835 0 0 1-28.8-12.374L256.001 192z" fill="#F6CD85"/><path d="M621.868 192a39.51 39.51 0 0 1 39.466 39.467v.213a38.848 38.848 0 0 1-8.32 24.107c-66.986-.64-119.68-9.814-119.68-21.12V192zm-472.534 0v42.667c0 11.093-62.72 20.48-119.68 21.12a38.848 38.848 0 0 1-8.32-24.107v-.213A39.51 39.51 0 0 1 60.801 192z" fill="#F6C8A4"/><path d="M533.334 234.667c0 11.306 52.694 20.48 119.68 21.12a40.341 40.341 0 0 1-13.44 11.093L533.334 320zm-384 0V320l-106.24-53.12a40.341 40.341 0 0 1-13.44-11.093c56.96-.64 119.68-10.027 119.68-21.12z" fill="#CDABA5"/><path d="M1002.668 384c0 94.293-38.187 170.667-85.334 170.667l-1.92.213a126.592 126.592 0 0 0-40.106-73.6c5.546-54.613 60.373-97.28 127.36-97.28zm-661.334 42.667L362.668 384H320zm192-106.667v170.667a42.795 42.795 0 0 1-42.666 42.666H192a42.795 42.795 0 0 1-42.667-42.666V192h106.667l56.533 94.293a33.835 33.835 0 0 0 28.8 12.374 33.835 33.835 0 0 0 28.8-12.374L426.668 192h106.666v128z" fill="#F6C8A4"/><path d="M875.308 481.28a126.592 126.592 0 0 1 40.106 73.6 114.368 114.368 0 0 1 1.92 21.12v362.667h-85.333V832H298.668v85.333h-85.334v-384h277.334a42.795 42.795 0 0 0 42.666-42.666V448h256a126.677 126.677 0 0 1 85.974 33.28z" fill="#F6C8A4"/><path d="M490.668 554.667H192a64 64 0 0 1-64-64V320h42.667v170.667A21.333 21.333 0 0 0 192 512h298.667A21.333 21.333 0 0 0 512 490.667V320h42.667v170.667a64 64 0 0 1-64 64zm-256-384H448v42.666H234.668z" fill="#2A3244"/><path d="M149.334 341.333a21.333 21.333 0 0 1-9.536-2.24l-106.24-53.226A61.867 61.867 0 0 1 12.673 268.8 59.733 59.733 0 0 1 .001 231.68a60.907 60.907 0 0 1 60.8-61.013h88.533A21.333 21.333 0 0 1 170.668 192v128a21.333 21.333 0 0 1-21.334 21.333zm-88.533-128a18.155 18.155 0 0 0-18.133 18.134 17.685 17.685 0 0 0 3.797 11.2 19.35 19.35 0 0 0 6.4 5.29l75.136 37.526v-72.15zm472.533 128A21.333 21.333 0 0 1 512.001 320V192a21.333 21.333 0 0 1 21.333-21.333h88.534a60.864 60.864 0 0 1 60.8 60.8 60.053 60.053 0 0 1-12.8 37.44 61.056 61.056 0 0 1-20.416 16.896l-106.539 53.333a21.333 21.333 0 0 1-9.579 2.197zm21.334-128v72.15l75.37-37.696a18.347 18.347 0 0 0 5.995-4.907 17.728 17.728 0 0 0 3.968-11.2 18.197 18.197 0 0 0-18.133-18.347z" fill="#2A3244"/><path d="M234.668 213.333h-85.334A21.333 21.333 0 0 1 128.001 192v-42.667H85.334A21.333 21.333 0 0 1 64.001 128V64a21.333 21.333 0 0 1 21.333-21.333h42.667V21.333A21.333 21.333 0 0 1 149.334 0h149.334A21.333 21.333 0 0 1 320 21.333V64a21.333 21.333 0 0 1-7.296 16.064l-56.704 49.515V192a21.333 21.333 0 0 1-21.333 21.333zm-64-42.666h42.666v-50.774a21.333 21.333 0 0 1 7.296-16.064l56.704-49.514V42.667H170.668V64a21.333 21.333 0 0 1-21.334 21.333h-42.666v21.334h42.666A21.333 21.333 0 0 1 170.668 128zm362.666 42.666h-85.333A21.333 21.333 0 0 1 426.668 192v-62.421l-56.704-49.515A21.333 21.333 0 0 1 362.668 64V21.333A21.333 21.333 0 0 1 384 0h149.333a21.333 21.333 0 0 1 21.334 21.333v21.334h42.666A21.333 21.333 0 0 1 618.668 64v64a21.333 21.333 0 0 1-21.334 21.333h-42.666V192a21.333 21.333 0 0 1-21.334 21.333zm-64-42.666h42.667V128a21.333 21.333 0 0 1 21.333-21.333h42.667V85.333h-42.667A21.333 21.333 0 0 1 512.001 64V42.667H405.334v11.648l56.704 49.514a21.333 21.333 0 0 1 7.296 16.064zM448.001 1024h-85.333a21.333 21.333 0 0 1-21.334-21.333V832h42.667v149.333h42.667V832h42.666v170.667A21.333 21.333 0 0 1 448.001 1024z" fill="#2A3244"/><path d="M917.334 1024h-85.333a21.333 21.333 0 0 1-21.333-21.333V853.333H320v149.334A21.333 21.333 0 0 1 298.668 1024h-85.334a21.333 21.333 0 0 1-21.333-21.333V533.333h42.667v448h42.666V832a21.333 21.333 0 0 1 21.334-21.333H832A21.333 21.333 0 0 1 853.334 832v149.333h42.667V576a92.224 92.224 0 0 0-1.557-17.195 106.667 106.667 0 0 0-105.11-89.472h-256v-42.666h256a149.333 149.333 0 0 1 147.2 124.8A133.845 133.845 0 0 1 938.668 576v426.667A21.333 21.333 0 0 1 917.334 1024z" fill="#2A3244"/><path d="M832.001 853.333c-136.384 0-192-55.616-192-192h42.667c0 111.638 37.696 149.334 149.333 149.334zM917.334 576v-42.667c27.414 0 57.75-52.544 63.147-126.122a95.019 95.019 0 0 0-83.947 76.224 49.515 49.515 0 0 0-.533 7.232h-42.667a87.275 87.275 0 0 1 .854-12.416c6.634-65.515 70.528-115.584 148.48-115.584A21.333 21.333 0 0 1 1024 384c0 109.461-45.845 192-106.667 192zm-85.333 341.333h85.333V960h-85.333zM213.334 896h85.334v42.667h-85.334zm149.334 0H448v42.667h-85.333zm298.666-618.667c-3.306 0-6.613 0-9.92-.277-139.413-1.28-139.413-30.08-139.413-42.39h42.667a15.701 15.701 0 0 0-5.739-12.586 312.32 312.32 0 0 0 104.299 12.373c3.648.235 5.888.171 8.106.214zm-640 0v-42.666c2.262 0 4.46 0 6.72-.15a355.072 355.072 0 0 0 106.347-13.269 16.49 16.49 0 0 0-6.4 13.419h42.667c0 10.112 0 40.874-140.8 42.453-1.92.213-5.227.213-8.534.213zm320 42.667a53.973 53.973 0 0 1-47.104-22.741l-56.533-94.294 36.608-21.93 56.533 94.293a27.733 27.733 0 0 0 10.496 2.005 19.435 19.435 0 0 0 11.072-2.752l55.958-93.546 36.608 21.93-56.534 94.294A53.973 53.973 0 0 1 341.334 320zm0 128a21.333 21.333 0 0 1-19.093-11.797l-21.333-42.667A21.333 21.333 0 0 1 320 362.666h42.667a21.333 21.333 0 0 1 19.093 30.87l-21.333 42.667A21.333 21.333 0 0 1 341.334 448z" fill="#2A3244"/><path d="M320.001 426.667h42.667v64H320zm128-21.334a64 64 0 0 1-64-64h42.667a21.333 21.333 0 0 0 42.666 0h42.667a64 64 0 0 1-64 64zm-213.333 0a64 64 0 0 1-64-64h42.666a21.333 21.333 0 0 0 42.667 0h42.667a64 64 0 0 1-64 64z" fill="#2A3244"/></svg>
